!!!COM:	Pierre de la Rue
**kern	**kern
*part2	*part1
*staff2	*staff1
*clefF4	*clefF4
*k[]	*k[]
*M2/1	*M2/1
=1-	=1-
1AA	1r
2.AA	1A
4BB	.
=2	=2
2C	2.A
2.D	.
.	4G
.	4F
4C	4E
4BB	[2G
4AA	.
=3	=3
2GG	2G]
1C	4F
.	4E
.	1D
2BB	.
=4	=4
1C	2r
.	2C
2r	2D
[2C	[2E
=5	=5
2C]	2E]
4BB	4D
4AA	4C
2BB	2D
[2C	2E
=6	=6
4C]	2AA
4D	.
2E	1E
2AA	.
[2D	[2F
=7	=7
4D]	4F]
4E	4G
2.F	2A
.	1D
4E	.
4D	.
4C	.
=8	=8
4D	2r
4C	.
4BB	2.G
4AA	.
1GG	.
.	4A
.	[2B
=9	=9
1GG	4B]
.	4A
.	4G
.	4F
2r	4G
.	4F
2GG	4E
.	4D
=10	=10
2AA	2C
2C	2E
2BB	2D
2AA	[2C
=11	=11
2C	4C]
.	4D
4BB	4E
4AA	4F
1GG	2.G
.	4F
=12	=12
2r	2D
2D	2F
2C	2E
2BB	[2D
=13	=13
2D	4D]
.	4E
4C	4F
4BB	4G
2AA	2A
2D	4G
.	4F
=14	=14
2C	2E
2BB	2G
2D	2F
4C	2E
4BB	.
=15	=15
2AA	2A
2AA	4G
.	4F
4GG	4E
4FF	4D
4EE	[2F
4DD	.
=16	=16
2FF	4F]
.	4E
2GG	1D
1EE	.
.	2C
=17	=17
0DD	0D
==	==
*-	*-
